X: 309
T: The galloping young thing
C: anon.
O: Ireland
B: Francis O'Neill: "The Dance Music of Ireland" (1907) no. 309
R: Double jig
Z: Transcribed by Frank Nordberg - http://www.musicaviva.com
F: http://www.musicaviva.com/abc/tunes/ireland/oneill-1001/oneill-1001-030
9.abc
m: Tn = (3n/o/n/
M: 6/8
L: 1/8
K: D
(A/G/)|FDD TcAc|ded cAG|FDD ({d}c)AF|GFG BAG|FDD TcAc|ded cde|({g}f)ed cA
F|GFD D2:|
|:e|fgf efe|ded cde|fgf efd|cAA A2e|fgf efe|ded cde|({g}f)ed cAF|GFD D2:|


